Newaita/actions/32/filename-title-amarok.svg

<svg height="32" viewBox="0 0 32 32" width="32" xmlns="http://www.w3.org/2000/svg"><g fill="#424242"><path d="m6.613281 10.835938h21.171875v1.320312h-21.171875zm0 0"/><path d="m7.9375 2.894531c-1.464844 0-2.644531 1.183594-2.644531 2.648438v21.167969c0 1.464843 1.179687 2.644531 2.644531 2.644531h18.507812c1.46875 0 2.648438-1.179688 2.648438-2.644531v-21.167969c0-1.464844-1.179688-2.648438-2.648438-2.648438zm1.324219 2.648438h15.863281c.730469 0 1.320312.589843 1.320312 1.320312v18.523438c0 .734375-.589843 1.324219-1.320312 1.324219h-15.863281c-.734375 0-1.324219-.589844-1.324219-1.324219v-18.523438c0-.730469.589844-1.320312 1.324219-1.320312zm0 0"/><path d="m3.308594 9.511719h2.644531c.367187 0 .660156.296875.660156.660156v1.324219c0 .363281-.292969.660156-.660156.660156h-2.644531c-.367188 0-.664063-.296875-.664063-.660156v-1.324219c0-.363281.296875-.660156.664063-.660156zm0 0"/><path d="m3.308594 20.09375h2.644531c.367187 0 .660156.296875.660156.664062v1.324219c0 .363281-.292969.660157-.660156.660157h-2.644531c-.367188 0-.664063-.296876-.664063-.660157v-1.324219c0-.367187.296875-.664062.664063-.664062zm0 0"/></g></svg>

<?xml version="1.0" encoding="UTF-8"?>
<svg xmlns="http://www.w3.org/2000/svg" xmlns:xlink="http://www.w3.org/1999/xlink" width="32px" height="32px" viewBox="0 0 32 32" version="1.1">
<g id="surface1">
<path style=" stroke:none;fill-rule:nonzero;fill:rgb(25.882354%,25.882354%,25.882354%);fill-opacity:1;" d="M 6.613281 10.835938 L 27.785156 10.835938 L 27.785156 12.15625 L 6.613281 12.15625 Z M 6.613281 10.835938 "/>
<path style=" stroke:none;fill-rule:nonzero;fill:rgb(25.882354%,25.882354%,25.882354%);fill-opacity:1;" d="M 7.9375 2.894531 C 6.472656 2.894531 5.292969 4.078125 5.292969 5.542969 L 5.292969 26.710938 C 5.292969 28.175781 6.472656 29.355469 7.9375 29.355469 L 26.445312 29.355469 C 27.914062 29.355469 29.09375 28.175781 29.09375 26.710938 L 29.09375 5.542969 C 29.09375 4.078125 27.914062 2.894531 26.445312 2.894531 Z M 9.261719 5.542969 L 25.125 5.542969 C 25.855469 5.542969 26.445312 6.132812 26.445312 6.863281 L 26.445312 25.386719 C 26.445312 26.121094 25.855469 26.710938 25.125 26.710938 L 9.261719 26.710938 C 8.527344 26.710938 7.9375 26.121094 7.9375 25.386719 L 7.9375 6.863281 C 7.9375 6.132812 8.527344 5.542969 9.261719 5.542969 Z M 9.261719 5.542969 "/>
<path style=" stroke:none;fill-rule:nonzero;fill:rgb(25.882354%,25.882354%,25.882354%);fill-opacity:1;" d="M 3.308594 9.511719 L 5.953125 9.511719 C 6.320312 9.511719 6.613281 9.808594 6.613281 10.171875 L 6.613281 11.496094 C 6.613281 11.859375 6.320312 12.15625 5.953125 12.15625 L 3.308594 12.15625 C 2.941406 12.15625 2.644531 11.859375 2.644531 11.496094 L 2.644531 10.171875 C 2.644531 9.808594 2.941406 9.511719 3.308594 9.511719 Z M 3.308594 9.511719 "/>
<path style=" stroke:none;fill-rule:nonzero;fill:rgb(25.882354%,25.882354%,25.882354%);fill-opacity:1;" d="M 3.308594 20.09375 L 5.953125 20.09375 C 6.320312 20.09375 6.613281 20.390625 6.613281 20.757812 L 6.613281 22.082031 C 6.613281 22.445312 6.320312 22.742188 5.953125 22.742188 L 3.308594 22.742188 C 2.941406 22.742188 2.644531 22.445312 2.644531 22.082031 L 2.644531 20.757812 C 2.644531 20.390625 2.941406 20.09375 3.308594 20.09375 Z M 3.308594 20.09375 "/>
</g>
</svg>
